src/shared/prerendered-app/Intro/imgs/info-content/small.svg

<svg width="536" height="522" viewBox="0 0 536 522" fill="none" xmlns="http://www.w3.org/2000/svg">
<rect width="536" height="522" rx="20" fill="#91D3FF" fill-opacity="0.3"/>
<path d="M436.5 393.667V128.833C436.5 108.025 419.475 91 398.667 91H133.833C113.025 91 96 108.025 96 128.833V393.667C96 414.475 113.025 431.5 133.833 431.5H398.667C419.475 431.5 436.5 414.475 436.5 393.667ZM200.042 289.625L247.333 346.564L313.542 261.25L398.667 374.75H133.833L200.042 289.625Z" fill="#F7F7F7" fill-opacity="0.2"/>
<rect y="309" width="219" height="213" rx="20" fill="#FF3385"/>
<path d="M180 471.889V359.111C180 350.25 172.75 343 163.889 343H51.1111C42.25 343 35 350.25 35 359.111V471.889C35 480.75 42.25 488 51.1111 488H163.889C172.75 488 180 480.75 180 471.889ZM79.3056 427.583L99.4444 451.831L127.639 415.5L163.889 463.833H51.1111L79.3056 427.583Z" fill="#F7F7F7" fill-opacity="0.2"/>
<path d="M63.744 421.384C65.856 422.088 67.472 423.144 68.592 424.552C69.744 425.96 70.32 427.656 70.32 429.64C70.32 431.592 69.792 433.304 68.736 434.776C67.68 436.216 66.16 437.336 64.176 438.136C62.224 438.904 59.92 439.288 57.264 439.288C53.232 439.288 50.064 438.424 47.76 436.696C45.456 434.968 44.304 432.616 44.304 429.64C44.304 427.624 44.848 425.928 45.936 424.552C47.056 423.144 48.672 422.088 50.784 421.384C49.056 420.712 47.744 419.752 46.848 418.504C45.952 417.224 45.504 415.72 45.504 413.992C45.504 411.272 46.56 409.112 48.672 407.512C50.816 405.912 53.68 405.112 57.264 405.112C59.632 405.112 61.696 405.48 63.456 406.216C65.248 406.92 66.64 407.944 67.632 409.288C68.624 410.632 69.12 412.2 69.12 413.992C69.12 415.72 68.656 417.224 67.728 418.504C66.8 419.752 65.472 420.712 63.744 421.384ZM48.96 414.088C48.96 415.944 49.696 417.416 51.168 418.504C52.64 419.592 54.672 420.136 57.264 420.136C59.856 420.136 61.888 419.592 63.36 418.504C64.864 417.416 65.616 415.96 65.616 414.136C65.616 412.248 64.848 410.76 63.312 409.672C61.808 408.584 59.792 408.04 57.264 408.04C54.704 408.04 52.672 408.584 51.168 409.672C49.696 410.76 48.96 412.232 48.96 414.088ZM57.264 436.36C60.24 436.36 62.56 435.752 64.224 434.536C65.92 433.32 66.768 431.672 66.768 429.592C66.768 427.512 65.92 425.88 64.224 424.696C62.56 423.48 60.24 422.872 57.264 422.872C54.32 422.872 52 423.48 50.304 424.696C48.64 425.88 47.808 427.512 47.808 429.592C47.808 431.704 48.64 433.368 50.304 434.584C51.968 435.768 54.288 436.36 57.264 436.36ZM86.3374 439.288C83.7454 439.288 81.4254 438.6 79.3774 437.224C77.3614 435.848 75.7774 433.88 74.6254 431.32C73.5054 428.728 72.9454 425.688 72.9454 422.2C72.9454 418.712 73.5054 415.688 74.6254 413.128C75.7774 410.536 77.3614 408.552 79.3774 407.176C81.4254 405.8 83.7454 405.112 86.3374 405.112C88.9294 405.112 91.2334 405.8 93.2494 407.176C95.2974 408.552 96.8974 410.536 98.0494 413.128C99.2014 415.688 99.7774 418.712 99.7774 422.2C99.7774 425.688 99.2014 428.728 98.0494 431.32C96.8974 433.88 95.2974 435.848 93.2494 437.224C91.2334 438.6 88.9294 439.288 86.3374 439.288ZM86.3374 436.12C88.2894 436.12 90.0014 435.576 91.4734 434.488C92.9774 433.4 94.1454 431.816 94.9774 429.736C95.8094 427.656 96.2254 425.144 96.2254 422.2C96.2254 419.256 95.8094 416.744 94.9774 414.664C94.1454 412.584 92.9774 411 91.4734 409.912C90.0014 408.824 88.2894 408.28 86.3374 408.28C84.3854 408.28 82.6574 408.824 81.1534 409.912C79.6814 411 78.5294 412.584 77.6974 414.664C76.8654 416.744 76.4494 419.256 76.4494 422.2C76.4494 425.144 76.8654 427.656 77.6974 429.736C78.5294 431.816 79.6814 433.4 81.1534 434.488C82.6574 435.576 84.3854 436.12 86.3374 436.12ZM125.017 428.872L121.417 432.424V439H113.929V403.384H121.417V423.544L132.361 413.176H141.289L130.537 424.12L142.249 439H133.177L125.017 428.872ZM158.721 412.792C161.121 412.792 163.297 413.352 165.249 414.472C167.233 415.56 168.785 417.112 169.905 419.128C171.025 421.112 171.585 423.432 171.585 426.088C171.585 428.744 171.025 431.08 169.905 433.096C168.785 435.08 167.233 436.632 165.249 437.752C163.297 438.84 161.121 439.384 158.721 439.384C155.169 439.384 152.465 438.264 150.609 436.024V439H143.457V403.384H150.945V415.912C152.833 413.832 155.425 412.792 158.721 412.792ZM157.425 433.24C159.345 433.24 160.913 432.6 162.129 431.32C163.377 430.008 164.001 428.264 164.001 426.088C164.001 423.912 163.377 422.184 162.129 420.904C160.913 419.592 159.345 418.936 157.425 418.936C155.505 418.936 153.921 419.592 152.673 420.904C151.457 422.184 150.849 423.912 150.849 426.088C150.849 428.264 151.457 430.008 152.673 431.32C153.921 432.6 155.505 433.24 157.425 433.24Z" fill="white"/>
<rect width="536" height="522" rx="20" fill="#91D3FF" fill-opacity="0.3"/>
<path d="M436.5 393.667V128.833C436.5 108.025 419.475 91 398.667 91H133.833C113.025 91 96 108.025 96 128.833V393.667C96 414.475 113.025 431.5 133.833 431.5H398.667C419.475 431.5 436.5 414.475 436.5 393.667ZM200.042 289.625L247.333 346.564L313.542 261.25L398.667 374.75H133.833L200.042 289.625Z" fill="#F7F7F7" fill-opacity="0.2"/>
<rect y="309" width="219" height="213" rx="20" fill="#FF3385"/>
<path d="M180 471.889V359.111C180 350.25 172.75 343 163.889 343H51.1111C42.25 343 35 350.25 35 359.111V471.889C35 480.75 42.25 488 51.1111 488H163.889C172.75 488 180 480.75 180 471.889ZM79.3056 427.583L99.4444 451.831L127.639 415.5L163.889 463.833H51.1111L79.3056 427.583Z" fill="#F7F7F7" fill-opacity="0.2"/>
<path d="M63.744 421.384C65.856 422.088 67.472 423.144 68.592 424.552C69.744 425.96 70.32 427.656 70.32 429.64C70.32 431.592 69.792 433.304 68.736 434.776C67.68 436.216 66.16 437.336 64.176 438.136C62.224 438.904 59.92 439.288 57.264 439.288C53.232 439.288 50.064 438.424 47.76 436.696C45.456 434.968 44.304 432.616 44.304 429.64C44.304 427.624 44.848 425.928 45.936 424.552C47.056 423.144 48.672 422.088 50.784 421.384C49.056 420.712 47.744 419.752 46.848 418.504C45.952 417.224 45.504 415.72 45.504 413.992C45.504 411.272 46.56 409.112 48.672 407.512C50.816 405.912 53.68 405.112 57.264 405.112C59.632 405.112 61.696 405.48 63.456 406.216C65.248 406.92 66.64 407.944 67.632 409.288C68.624 410.632 69.12 412.2 69.12 413.992C69.12 415.72 68.656 417.224 67.728 418.504C66.8 419.752 65.472 420.712 63.744 421.384ZM48.96 414.088C48.96 415.944 49.696 417.416 51.168 418.504C52.64 419.592 54.672 420.136 57.264 420.136C59.856 420.136 61.888 419.592 63.36 418.504C64.864 417.416 65.616 415.96 65.616 414.136C65.616 412.248 64.848 410.76 63.312 409.672C61.808 408.584 59.792 408.04 57.264 408.04C54.704 408.04 52.672 408.584 51.168 409.672C49.696 410.76 48.96 412.232 48.96 414.088ZM57.264 436.36C60.24 436.36 62.56 435.752 64.224 434.536C65.92 433.32 66.768 431.672 66.768 429.592C66.768 427.512 65.92 425.88 64.224 424.696C62.56 423.48 60.24 422.872 57.264 422.872C54.32 422.872 52 423.48 50.304 424.696C48.64 425.88 47.808 427.512 47.808 429.592C47.808 431.704 48.64 433.368 50.304 434.584C51.968 435.768 54.288 436.36 57.264 436.36ZM86.3374 439.288C83.7454 439.288 81.4254 438.6 79.3774 437.224C77.3614 435.848 75.7774 433.88 74.6254 431.32C73.5054 428.728 72.9454 425.688 72.9454 422.2C72.9454 418.712 73.5054 415.688 74.6254 413.128C75.7774 410.536 77.3614 408.552 79.3774 407.176C81.4254 405.8 83.7454 405.112 86.3374 405.112C88.9294 405.112 91.2334 405.8 93.2494 407.176C95.2974 408.552 96.8974 410.536 98.0494 413.128C99.2014 415.688 99.7774 418.712 99.7774 422.2C99.7774 425.688 99.2014 428.728 98.0494 431.32C96.8974 433.88 95.2974 435.848 93.2494 437.224C91.2334 438.6 88.9294 439.288 86.3374 439.288ZM86.3374 436.12C88.2894 436.12 90.0014 435.576 91.4734 434.488C92.9774 433.4 94.1454 431.816 94.9774 429.736C95.8094 427.656 96.2254 425.144 96.2254 422.2C96.2254 419.256 95.8094 416.744 94.9774 414.664C94.1454 412.584 92.9774 411 91.4734 409.912C90.0014 408.824 88.2894 408.28 86.3374 408.28C84.3854 408.28 82.6574 408.824 81.1534 409.912C79.6814 411 78.5294 412.584 77.6974 414.664C76.8654 416.744 76.4494 419.256 76.4494 422.2C76.4494 425.144 76.8654 427.656 77.6974 429.736C78.5294 431.816 79.6814 433.4 81.1534 434.488C82.6574 435.576 84.3854 436.12 86.3374 436.12ZM125.017 428.872L121.417 432.424V439H113.929V403.384H121.417V423.544L132.361 413.176H141.289L130.537 424.12L142.249 439H133.177L125.017 428.872ZM158.721 412.792C161.121 412.792 163.297 413.352 165.249 414.472C167.233 415.56 168.785 417.112 169.905 419.128C171.025 421.112 171.585 423.432 171.585 426.088C171.585 428.744 171.025 431.08 169.905 433.096C168.785 435.08 167.233 436.632 165.249 437.752C163.297 438.84 161.121 439.384 158.721 439.384C155.169 439.384 152.465 438.264 150.609 436.024V439H143.457V403.384H150.945V415.912C152.833 413.832 155.425 412.792 158.721 412.792ZM157.425 433.24C159.345 433.24 160.913 432.6 162.129 431.32C163.377 430.008 164.001 428.264 164.001 426.088C164.001 423.912 163.377 422.184 162.129 420.904C160.913 419.592 159.345 418.936 157.425 418.936C155.505 418.936 153.921 419.592 152.673 420.904C151.457 422.184 150.849 423.912 150.849 426.088C150.849 428.264 151.457 430.008 152.673 431.32C153.921 432.6 155.505 433.24 157.425 433.24Z" fill="white"/>
<path d="M149.616 171.8V239H142.704V177.944H126.864V171.8H149.616ZM166.544 239.48C165.136 239.48 163.92 238.968 162.896 237.944C161.936 236.92 161.456 235.672 161.456 234.2C161.456 232.728 161.936 231.512 162.896 230.552C163.92 229.528 165.136 229.016 166.544 229.016C167.952 229.016 169.168 229.528 170.192 230.552C171.216 231.512 171.728 232.728 171.728 234.2C171.728 235.672 171.216 236.92 170.192 237.944C169.168 238.968 167.952 239.48 166.544 239.48ZM233.285 221.336H219.845V239H212.933V221.336H175.013V216.344L210.629 171.8H218.309L183.941 215.192H213.125V199.64H219.845V215.192H233.285V221.336ZM324.182 186.584C330.646 186.584 335.766 188.504 339.542 192.344C343.382 196.12 345.302 201.816 345.302 209.432V239H330.326V211.736C330.326 207.64 329.462 204.6 327.734 202.616C326.07 200.568 323.67 199.544 320.534 199.544C317.014 199.544 314.23 200.696 312.182 203C310.134 205.24 309.11 208.6 309.11 213.08V239H294.134V211.736C294.134 203.608 290.87 199.544 284.342 199.544C280.886 199.544 278.134 200.696 276.086 203C274.038 205.24 273.014 208.6 273.014 213.08V239H258.038V187.352H272.342V193.304C274.262 191.128 276.598 189.464 279.35 188.312C282.166 187.16 285.238 186.584 288.566 186.584C292.214 186.584 295.51 187.32 298.454 188.792C301.398 190.2 303.766 192.28 305.558 195.032C307.67 192.344 310.326 190.264 313.526 188.792C316.79 187.32 320.342 186.584 324.182 186.584ZM379.174 186.584C383.974 186.584 388.326 187.704 392.23 189.944C396.198 192.12 399.302 195.224 401.542 199.256C403.782 203.224 404.902 207.864 404.902 213.176C404.902 218.488 403.782 223.16 401.542 227.192C399.302 231.16 396.198 234.264 392.23 236.504C388.326 238.68 383.974 239.768 379.174 239.768C372.07 239.768 366.662 237.528 362.95 233.048V239H348.646V167.768H363.622V192.824C367.398 188.664 372.582 186.584 379.174 186.584ZM376.582 227.48C380.422 227.48 383.558 226.2 385.99 223.64C388.486 221.016 389.734 217.528 389.734 213.176C389.734 208.824 388.486 205.368 385.99 202.808C383.558 200.184 380.422 198.872 376.582 198.872C372.742 198.872 369.574 200.184 367.078 202.808C364.646 205.368 363.43 208.824 363.43 213.176C363.43 217.528 364.646 221.016 367.078 223.64C369.574 226.2 372.742 227.48 376.582 227.48Z" fill="white" fill-opacity="0.4"/>
</svg>

<svg width="536" height="522" fill="none" xmlns="http://www.w3.org/2000/svg"><rect width="536" height="522" rx="20" fill="#91D3FF" fill-opacity=".3"/><path d="M436.5 393.667V128.833C436.5 108.025 419.475 91 398.667 91H133.833C113.025 91 96 108.025 96 128.833v264.834c0 20.808 17.025 37.833 37.833 37.833h264.834c20.808 0 37.833-17.025 37.833-37.833zM200.042 289.625l47.291 56.939 66.209-85.314 85.125 113.5H133.833l66.209-85.125z" fill="#F7F7F7" fill-opacity=".2"/><rect y="309" width="219" height="213" rx="20" fill="#FF3385"/><path d="M180 471.889V359.111c0-8.861-7.25-16.111-16.111-16.111H51.111C42.25 343 35 350.25 35 359.111v112.778C35 480.75 42.25 488 51.111 488H163.89c8.861 0 16.111-7.25 16.111-16.111zM79.306 427.583l20.138 24.248L127.64 415.5l36.25 48.333H51.111l28.195-36.25z" fill="#F7F7F7" fill-opacity=".2"/><path d="M63.744 421.384c2.112.704 3.728 1.76 4.848 3.168 1.152 1.408 1.728 3.104 1.728 5.088 0 1.952-.528 3.664-1.584 5.136-1.056 1.44-2.576 2.56-4.56 3.36-1.952.768-4.256 1.152-6.912 1.152-4.032 0-7.2-.864-9.504-2.592-2.304-1.728-3.456-4.08-3.456-7.056 0-2.016.544-3.712 1.632-5.088 1.12-1.408 2.736-2.464 4.848-3.168-1.728-.672-3.04-1.632-3.936-2.88-.896-1.28-1.344-2.784-1.344-4.512 0-2.72 1.056-4.88 3.168-6.48 2.144-1.6 5.008-2.4 8.592-2.4 2.368 0 4.432.368 6.192 1.104 1.792.704 3.184 1.728 4.176 3.072s1.488 2.912 1.488 4.704c0 1.728-.464 3.232-1.392 4.512-.928 1.248-2.256 2.208-3.984 2.88zm-14.784-7.296c0 1.856.736 3.328 2.208 4.416 1.472 1.088 3.504 1.632 6.096 1.632s4.624-.544 6.096-1.632c1.504-1.088 2.256-2.544 2.256-4.368 0-1.888-.768-3.376-2.304-4.464-1.504-1.088-3.52-1.632-6.048-1.632-2.56 0-4.592.544-6.096 1.632-1.472 1.088-2.208 2.56-2.208 4.416zm8.304 22.272c2.976 0 5.296-.608 6.96-1.824 1.696-1.216 2.544-2.864 2.544-4.944s-.848-3.712-2.544-4.896c-1.664-1.216-3.984-1.824-6.96-1.824-2.944 0-5.264.608-6.96 1.824-1.664 1.184-2.496 2.816-2.496 4.896 0 2.112.832 3.776 2.496 4.992 1.664 1.184 3.984 1.776 6.96 1.776zm29.073 2.928c-2.592 0-4.912-.688-6.96-2.064-2.016-1.376-3.6-3.344-4.752-5.904-1.12-2.592-1.68-5.632-1.68-9.12 0-3.488.56-6.512 1.68-9.072 1.152-2.592 2.736-4.576 4.752-5.952 2.048-1.376 4.368-2.064 6.96-2.064 2.592 0 4.896.688 6.912 2.064 2.048 1.376 3.648 3.36 4.8 5.952 1.152 2.56 1.728 5.584 1.728 9.072 0 3.488-.576 6.528-1.728 9.12-1.152 2.56-2.752 4.528-4.8 5.904-2.016 1.376-4.32 2.064-6.912 2.064zm0-3.168c1.952 0 3.664-.544 5.136-1.632 1.504-1.088 2.672-2.672 3.504-4.752.832-2.08 1.248-4.592 1.248-7.536s-.416-5.456-1.248-7.536c-.832-2.08-2-3.664-3.504-4.752-1.472-1.088-3.184-1.632-5.136-1.632s-3.68.544-5.184 1.632c-1.472 1.088-2.624 2.672-3.456 4.752-.832 2.08-1.248 4.592-1.248 7.536s.416 5.456 1.248 7.536c.832 2.08 1.984 3.664 3.456 4.752 1.504 1.088 3.232 1.632 5.184 1.632zm38.68-7.248l-3.6 3.552V439h-7.488v-35.616h7.488v20.16l10.944-10.368h8.928l-10.752 10.944L142.249 439h-9.072l-8.16-10.128zm33.704-16.08c2.4 0 4.576.56 6.528 1.68 1.984 1.088 3.536 2.64 4.656 4.656 1.12 1.984 1.68 4.304 1.68 6.96 0 2.656-.56 4.992-1.68 7.008a12.057 12.057 0 01-4.656 4.656c-1.952 1.088-4.128 1.632-6.528 1.632-3.552 0-6.256-1.12-8.112-3.36V439h-7.152v-35.616h7.488v12.528c1.888-2.08 4.48-3.12 7.776-3.12zm-1.296 20.448c1.92 0 3.488-.64 4.704-1.92 1.248-1.312 1.872-3.056 1.872-5.232s-.624-3.904-1.872-5.184c-1.216-1.312-2.784-1.968-4.704-1.968s-3.504.656-4.752 1.968c-1.216 1.28-1.824 3.008-1.824 5.184s.608 3.92 1.824 5.232c1.248 1.28 2.832 1.92 4.752 1.92z" fill="#fff"/><rect width="536" height="522" rx="20" fill="#91D3FF" fill-opacity=".3"/><path d="M436.5 393.667V128.833C436.5 108.025 419.475 91 398.667 91H133.833C113.025 91 96 108.025 96 128.833v264.834c0 20.808 17.025 37.833 37.833 37.833h264.834c20.808 0 37.833-17.025 37.833-37.833zM200.042 289.625l47.291 56.939 66.209-85.314 85.125 113.5H133.833l66.209-85.125z" fill="#F7F7F7" fill-opacity=".2"/><rect y="309" width="219" height="213" rx="20" fill="#FF3385"/><path d="M180 471.889V359.111c0-8.861-7.25-16.111-16.111-16.111H51.111C42.25 343 35 350.25 35 359.111v112.778C35 480.75 42.25 488 51.111 488H163.89c8.861 0 16.111-7.25 16.111-16.111zM79.306 427.583l20.138 24.248L127.64 415.5l36.25 48.333H51.111l28.195-36.25z" fill="#F7F7F7" fill-opacity=".2"/><path d="M63.744 421.384c2.112.704 3.728 1.76 4.848 3.168 1.152 1.408 1.728 3.104 1.728 5.088 0 1.952-.528 3.664-1.584 5.136-1.056 1.44-2.576 2.56-4.56 3.36-1.952.768-4.256 1.152-6.912 1.152-4.032 0-7.2-.864-9.504-2.592-2.304-1.728-3.456-4.08-3.456-7.056 0-2.016.544-3.712 1.632-5.088 1.12-1.408 2.736-2.464 4.848-3.168-1.728-.672-3.04-1.632-3.936-2.88-.896-1.28-1.344-2.784-1.344-4.512 0-2.72 1.056-4.88 3.168-6.48 2.144-1.6 5.008-2.4 8.592-2.4 2.368 0 4.432.368 6.192 1.104 1.792.704 3.184 1.728 4.176 3.072s1.488 2.912 1.488 4.704c0 1.728-.464 3.232-1.392 4.512-.928 1.248-2.256 2.208-3.984 2.88zm-14.784-7.296c0 1.856.736 3.328 2.208 4.416 1.472 1.088 3.504 1.632 6.096 1.632s4.624-.544 6.096-1.632c1.504-1.088 2.256-2.544 2.256-4.368 0-1.888-.768-3.376-2.304-4.464-1.504-1.088-3.52-1.632-6.048-1.632-2.56 0-4.592.544-6.096 1.632-1.472 1.088-2.208 2.56-2.208 4.416zm8.304 22.272c2.976 0 5.296-.608 6.96-1.824 1.696-1.216 2.544-2.864 2.544-4.944s-.848-3.712-2.544-4.896c-1.664-1.216-3.984-1.824-6.96-1.824-2.944 0-5.264.608-6.96 1.824-1.664 1.184-2.496 2.816-2.496 4.896 0 2.112.832 3.776 2.496 4.992 1.664 1.184 3.984 1.776 6.96 1.776zm29.073 2.928c-2.592 0-4.912-.688-6.96-2.064-2.016-1.376-3.6-3.344-4.752-5.904-1.12-2.592-1.68-5.632-1.68-9.12 0-3.488.56-6.512 1.68-9.072 1.152-2.592 2.736-4.576 4.752-5.952 2.048-1.376 4.368-2.064 6.96-2.064 2.592 0 4.896.688 6.912 2.064 2.048 1.376 3.648 3.36 4.8 5.952 1.152 2.56 1.728 5.584 1.728 9.072 0 3.488-.576 6.528-1.728 9.12-1.152 2.56-2.752 4.528-4.8 5.904-2.016 1.376-4.32 2.064-6.912 2.064zm0-3.168c1.952 0 3.664-.544 5.136-1.632 1.504-1.088 2.672-2.672 3.504-4.752.832-2.08 1.248-4.592 1.248-7.536s-.416-5.456-1.248-7.536c-.832-2.08-2-3.664-3.504-4.752-1.472-1.088-3.184-1.632-5.136-1.632s-3.68.544-5.184 1.632c-1.472 1.088-2.624 2.672-3.456 4.752-.832 2.08-1.248 4.592-1.248 7.536s.416 5.456 1.248 7.536c.832 2.08 1.984 3.664 3.456 4.752 1.504 1.088 3.232 1.632 5.184 1.632zm38.68-7.248l-3.6 3.552V439h-7.488v-35.616h7.488v20.16l10.944-10.368h8.928l-10.752 10.944L142.249 439h-9.072l-8.16-10.128zm33.704-16.08c2.4 0 4.576.56 6.528 1.68 1.984 1.088 3.536 2.64 4.656 4.656 1.12 1.984 1.68 4.304 1.68 6.96 0 2.656-.56 4.992-1.68 7.008a12.057 12.057 0 01-4.656 4.656c-1.952 1.088-4.128 1.632-6.528 1.632-3.552 0-6.256-1.12-8.112-3.36V439h-7.152v-35.616h7.488v12.528c1.888-2.08 4.48-3.12 7.776-3.12zm-1.296 20.448c1.92 0 3.488-.64 4.704-1.92 1.248-1.312 1.872-3.056 1.872-5.232s-.624-3.904-1.872-5.184c-1.216-1.312-2.784-1.968-4.704-1.968s-3.504.656-4.752 1.968c-1.216 1.28-1.824 3.008-1.824 5.184s.608 3.92 1.824 5.232c1.248 1.28 2.832 1.92 4.752 1.92z" fill="#fff"/><path d="M149.616 171.8V239h-6.912v-61.056h-15.84V171.8h22.752zm16.928 67.68c-1.408 0-2.624-.512-3.648-1.536-.96-1.024-1.44-2.272-1.44-3.744 0-1.472.48-2.688 1.44-3.648 1.024-1.024 2.24-1.536 3.648-1.536s2.624.512 3.648 1.536c1.024.96 1.536 2.176 1.536 3.648s-.512 2.72-1.536 3.744-2.24 1.536-3.648 1.536zm66.741-18.144h-13.44V239h-6.912v-17.664h-37.92v-4.992l35.616-44.544h7.68l-34.368 43.392h29.184V199.64h6.72v15.552h13.44v6.144zm90.897-34.752c6.464 0 11.584 1.92 15.36 5.76 3.84 3.776 5.76 9.472 5.76 17.088V239h-14.976v-27.264c0-4.096-.864-7.136-2.592-9.12-1.664-2.048-4.064-3.072-7.2-3.072-3.52 0-6.304 1.152-8.352 3.456-2.048 2.24-3.072 5.6-3.072 10.08V239h-14.976v-27.264c0-8.128-3.264-12.192-9.792-12.192-3.456 0-6.208 1.152-8.256 3.456-2.048 2.24-3.072 5.6-3.072 10.08V239h-14.976v-51.648h14.304v5.952c1.92-2.176 4.256-3.84 7.008-4.992 2.816-1.152 5.888-1.728 9.216-1.728 3.648 0 6.944.736 9.888 2.208 2.944 1.408 5.312 3.488 7.104 6.24 2.112-2.688 4.768-4.768 7.968-6.24 3.264-1.472 6.816-2.208 10.656-2.208zm54.992 0c4.8 0 9.152 1.12 13.056 3.36 3.968 2.176 7.072 5.28 9.312 9.312 2.24 3.968 3.36 8.608 3.36 13.92 0 5.312-1.12 9.984-3.36 14.016-2.24 3.968-5.344 7.072-9.312 9.312-3.904 2.176-8.256 3.264-13.056 3.264-7.104 0-12.512-2.24-16.224-6.72V239h-14.304v-71.232h14.976v25.056c3.776-4.16 8.96-6.24 15.552-6.24zm-2.592 40.896c3.84 0 6.976-1.28 9.408-3.84 2.496-2.624 3.744-6.112 3.744-10.464s-1.248-7.808-3.744-10.368c-2.432-2.624-5.568-3.936-9.408-3.936s-7.008 1.312-9.504 3.936c-2.432 2.56-3.648 6.016-3.648 10.368s1.216 7.84 3.648 10.464c2.496 2.56 5.664 3.84 9.504 3.84z" fill="#fff" fill-opacity=".4"/></svg>
